dist/img/svg/vk_video.svg

<svg width="24" height="24" viewBox="0 0 24 24" fill="none" xmlns="http://www.w3.org/2000/svg">
<path fill-rule="evenodd" clip-rule="evenodd" d="M21.8242 6.333C21.6485 5.02594 21.297 4.10881 20.5941 3.40589C19.8912 2.70296 18.9741 2.35149 17.667 2.17575C17.5445 2.15927 17.4185 2.14434 17.289 2.13081C16.0368 2 14.4508 2 12.4 2H11.6C9.3978 2 7.7316 2 6.4392 2.16196C5.07538 2.33286 4.1277 2.68407 3.40589 3.40589C2.70296 4.10881 2.35149 5.02594 2.17575 6.333C2.15927 6.45553 2.14434 6.58149 2.13081 6.71102C2 7.96316 2 9.54916 2 11.6V12.4C2 14.6022 2 16.2684 2.16196 17.5608C2.33286 18.9246 2.68407 19.8723 3.40589 20.5941C4.01014 21.1984 4.77268 21.5429 5.80514 21.7394C7.1747 22 9.01932 22 11.6 22H12.4C14.663 22 16.36 22 17.667 21.8242C18.9741 21.6485 19.8912 21.297 20.5941 20.5941C21.1984 19.9899 21.5429 19.2273 21.7394 18.1949C22 16.8253 22 14.9807 22 12.4V11.6C22 9.337 22 7.64 21.8242 6.333ZM10.506 8.312C10.26 8.648 10.26 9.232 10.26 10.4V13.6C10.26 14.766 10.26 15.35 10.506 15.688C10.72 15.982 11.048 16.172 11.41 16.21C11.8243 16.2538 12.3259 15.9644 13.3297 15.3851L16.139 13.7624C17.131 13.1888 17.6295 12.9006 17.798 12.522C17.946 12.19 17.946 11.81 17.798 11.478C17.628 11.098 17.124 10.806 16.112 10.222L13.342 8.622C12.33 8.038 11.824 7.746 11.41 7.79C11.048 7.828 10.72 8.018 10.506 8.312ZM7.42692 21.1268C7.07174 21.1033 6.74394 21.0723 6.43969 21.0314C5.2213 20.8676 4.5011 20.558 3.97157 20.0284C3.44204 19.4989 3.13241 18.7787 2.9686 17.5603C2.8017 16.3189 2.8 14.6854 2.8 12.4V11.6C2.8 9.31464 2.8017 7.6811 2.9686 6.43969C3.13241 5.2213 3.44204 4.5011 3.97157 3.97157C4.5011 3.44204 5.2213 3.13241 6.43969 2.9686C6.74135 2.92805 7.06615 2.89724 7.41784 2.87385C7.17041 3.02318 6.9457 3.1983 6.74 3.404C5.334 4.81 5.334 7.072 5.334 11.598V12.398C5.334 16.924 5.334 19.186 6.74 20.592C6.94782 20.7998 7.17588 20.9764 7.42692 21.1268Z" fill="currentColor"/>
</svg>

<svg width="24" height="24" viewBox="0 0 24 24" fill="none" xmlns="http://www.w3.org/2000/svg"><path fill-rule="evenodd" clip-rule="evenodd" d="M21.824 6.333c-.176-1.307-.527-2.224-1.23-2.927-.703-.703-1.62-1.055-2.927-1.23a12.86 12.86 0 00-.378-.045C16.037 2 14.451 2 12.4 2h-.8c-2.202 0-3.868 0-5.16.162-1.365.17-2.312.522-3.034 1.244-.703.703-1.055 1.62-1.23 2.927a12.86 12.86 0 00-.045.378C2 7.963 2 9.549 2 11.6v.8c0 2.202 0 3.868.162 5.16.17 1.365.522 2.312 1.244 3.034.604.604 1.367.949 2.4 1.145C7.174 22 9.018 22 11.6 22h.8c2.263 0 3.96 0 5.267-.176 1.307-.176 2.224-.527 2.927-1.23.604-.604.949-1.367 1.145-2.4C22 16.826 22 14.982 22 12.4v-.8c0-2.263 0-3.96-.176-5.267zM10.506 8.312c-.246.336-.246.92-.246 2.088v3.2c0 1.166 0 1.75.246 2.088.214.294.542.484.904.522.414.044.916-.246 1.92-.825l2.809-1.623c.992-.573 1.49-.861 1.659-1.24a1.283 1.283 0 000-1.044c-.17-.38-.674-.672-1.686-1.256l-2.77-1.6c-1.012-.584-1.518-.876-1.932-.832-.362.038-.69.228-.904.522zm-3.08 12.815a14.743 14.743 0 01-.986-.096c-1.219-.163-1.939-.473-2.468-1.003-.53-.53-.84-1.25-1.003-2.468-.167-1.241-.169-2.875-.169-5.16v-.8c0-2.285.002-3.919.169-5.16.163-1.219.473-1.939 1.003-2.468.53-.53 1.25-.84 2.468-1.003.301-.041.626-.072.978-.095a3.54 3.54 0 00-.678.53C5.334 4.81 5.334 7.072 5.334 11.598v.8c0 4.526 0 6.788 1.406 8.194.208.208.436.384.687.535z" fill="currentColor"/></svg>
